X:182
T: BIN I A LUSTIGA FUHRMANNSSOHN
N: Z0181
O: Europa, Mitteleuropa, Deutschland, Rheinland
R: Schiffer -, Handwerker - Lied
M: 3/4
L: 1/8
K: A
 | cee2c2 | Bdd2B2 | c2c2c2 |
cee2c2 | Bdd2B2 | c2z4 |
BBBBBc | eddcB2 |
cccccd | feedc2 |
cee3c | Bdd3B | c2c2c2 |
cee3c | Bdd3d | c2z4

@@@ Tune index: 9940
